X:1
T:Title
%%score { ( 1 3 ) | ( 2 4 ) }
L:1/8
Q:1/4=88
M:4/4
K:Bb
V:1 treble nm="Grand Piano"
V:3 treble 
V:2 bass 
V:4 bass 
V:1
 (3[B,D][DF][DF] [DF]>[EG] [DF]2 [EG]>[FA] | [FB]>[Fc] [B,GB]>[B,EG] [B,DF]2 [DFB]2 | %2
w: W.~A.~Ogden * * * * * * *||
 (3[CFA]cc c>d c2 F>A | [FG]2 [=EG]2 z2 _E2 | (3D[DF][DF] [DF]>[EG] [DF]2 [EG]>[FA] | %5
w: |||
 [FB]>[Fc] [GB]>[EG] [DF]2 [DB]2 | (3ddd e>e d2 [FB]>c | B2 A2 [DB]4 | %8
w: |||
 (3[GB][Ge][Ge] [Ge]>[Ge] [Ge]4 | (3[DB][Fd][Fd] [Fd]>[Fd] [Fd]4 | (3[CFA]cc c>d c>B A>[DG] | %11
w: |||
 F2 =E2 F4 | (3D[DF][DF] [DF]>[EG] [DF]2 [EG]>[FA] | [FB]>[Fc] [GB]>[EG] [DF]2 [DB]2 | %14
w: |||
 (3ddd e>e d2 [FB]>c |[M:8/4] B2 A2 [DB]4 z8 |] %16
w: ||
V:2
 (3[B,,F,][B,,B,][B,,B,] [B,,B,]>[B,,B,] [B,,B,]2 [E,B,]>[E,C] | [D,B,]>[D,B,] E,>E, B,,2 B,,2 | %2
 (3F,[F,A,F][F,A,F] [F,A,F]>[F,B,F] [F,A,F]2 [F,A,]>[F,CF] | [C,C]2 [C,B,]2 [F,A,]4 | %4
 (3[B,,F,B,][B,,B,][B,,B,] [B,,B,]>[B,,B,] [B,,B,]2 [E,B,]>[E,C] | %5
 [D,B,]>[D,B,] [E,B,]>[E,B,] [B,,B,]2 [B,,B,]2 | %6
 (3[B,F][B,F][B,F] [B,G]>[B,G] [B,F]2[K:bass] [D,B,]>[E,G,E] | [F,D]2 [F,CE]2 [B,,B,]4 | z4 B,4 | %9
 (3B,B,B, B,>B, B,>F, D,>B,, | (3F,[F,A,F][F,A,F] [F,A,F]>[F,B,F] [F,A,F]>[F,DF] [F,CF]>[B,,B,] | %11
 [C,A,C]2 [C,G,C]2 [F,A,C]4 | (3[B,,F,B,][B,,B,][B,,B,] [B,,B,]>[B,,B,] [B,,B,]2 [E,B,]>[E,C] | %13
 [D,B,]>[D,B,] [E,B,]>[E,B,] [B,,B,]2 [B,,B,]2 | %14
 (3[B,F][B,F][B,F] [B,G]>[B,G] [B,F]2[K:bass] [D,B,]>[E,G,E] |[M:8/4] [F,D]2 [F,CE]2 [B,,B,]4 z8 |] %16
V:3
 x8 | x8 | x8 | z4 F4 | x8 | x8 | x8 | x8 | x8 | x8 | x8 | x8 | x8 | x8 | x8 |[M:8/4] x16 |] %16
V:4
 x8 | x8 | x8 | x8 | x8 | x8 | x6[K:bass] x2 | x8 | %8
 (3[E,B,][E,B,][E,B,] [E,B,]>[E,B,] E,>F, G,>A, | x8 | x8 | x8 | x8 | x8 | x6[K:bass] x2 | %15
[M:8/4] x16 |] %16

